images/3234158.svg

<?xml version="1.0" encoding="UTF-8"?>
<svg xmlns="http://www.w3.org/2000/svg" xmlns:xlink="http://www.w3.org/1999/xlink" width="300pt" height="300pt" viewBox="0 0 300 300" version="1.1">
<defs>
<g>
<symbol overflow="visible" id="glyph0-0">
<path style="stroke:none;" d="M 0.796875 2.828125 L 0.796875 -11.28125 L 8.796875 -11.28125 L 8.796875 2.828125 Z M 1.703125 1.9375 L 7.90625 1.9375 L 7.90625 -10.390625 L 1.703125 -10.390625 Z M 1.703125 1.9375 "/>
</symbol>
<symbol overflow="visible" id="glyph0-1">
<path style="stroke:none;" d="M 1.578125 -11.671875 L 3.703125 -11.671875 L 8.875 -1.90625 L 8.875 -11.671875 L 10.40625 -11.671875 L 10.40625 0 L 8.28125 0 L 3.109375 -9.765625 L 3.109375 0 L 1.578125 0 Z M 1.578125 -11.671875 "/>
</symbol>
<symbol overflow="visible" id="glyph0-2">
<path style="stroke:none;" d="M 1.578125 -11.671875 L 3.15625 -11.671875 L 3.15625 -6.890625 L 8.890625 -6.890625 L 8.890625 -11.671875 L 10.46875 -11.671875 L 10.46875 0 L 8.890625 0 L 8.890625 -5.5625 L 3.15625 -5.5625 L 3.15625 0 L 1.578125 0 Z M 1.578125 -11.671875 "/>
</symbol>
</g>
</defs>
<g id="surface31013">
<rect x="0" y="0" width="300" height="300" style="fill:rgb(100%,100%,100%);fill-opacity:1;stroke:none;"/>
<path style="fill:none;stroke-width:1.2;stroke-linecap:butt;stroke-linejoin:miter;stroke:rgb(0%,0%,0%);stroke-opacity:1;stroke-miterlimit:10;" d="M 134.011719 193.859375 L 99.847656 176.65625 "/>
<path style="fill:none;stroke-width:1.2;stroke-linecap:butt;stroke-linejoin:miter;stroke:rgb(0%,0%,0%);stroke-opacity:1;stroke-miterlimit:10;" d="M 99.847656 176.65625 L 67.867188 197.640625 "/>
<path style="fill:none;stroke-width:1.2;stroke-linecap:butt;stroke-linejoin:miter;stroke:rgb(0%,0%,0%);stroke-opacity:1;stroke-miterlimit:10;" d="M 91.710938 171.230469 L 66.128906 188.019531 "/>
<path style="fill:none;stroke-width:1.2;stroke-linecap:butt;stroke-linejoin:miter;stroke:rgb(0%,0%,0%);stroke-opacity:1;stroke-miterlimit:10;" d="M 97.664062 138.46875 L 99.847656 176.65625 "/>
<path style="fill:none;stroke-width:1.2;stroke-linecap:butt;stroke-linejoin:miter;stroke:rgb(0%,0%,0%);stroke-opacity:1;stroke-miterlimit:10;" d="M 67.867188 197.640625 L 33.703125 180.4375 "/>
<path style="fill:none;stroke-width:1.2;stroke-linecap:butt;stroke-linejoin:miter;stroke:rgb(0%,0%,0%);stroke-opacity:1;stroke-miterlimit:10;" d="M 33.703125 180.4375 L 31.519531 142.25 "/>
<path style="fill:none;stroke-width:1.2;stroke-linecap:butt;stroke-linejoin:miter;stroke:rgb(0%,0%,0%);stroke-opacity:1;stroke-miterlimit:10;" d="M 42.472656 176.105469 L 40.722656 145.554688 "/>
<path style="fill:none;stroke-width:1.2;stroke-linecap:butt;stroke-linejoin:miter;stroke:rgb(0%,0%,0%);stroke-opacity:1;stroke-miterlimit:10;" d="M 31.519531 142.25 L 63.5 121.265625 "/>
<path style="fill:none;stroke-width:1.2;stroke-linecap:butt;stroke-linejoin:miter;stroke:rgb(0%,0%,0%);stroke-opacity:1;stroke-miterlimit:10;" d="M 63.5 121.265625 L 97.664062 138.46875 "/>
<path style="fill:none;stroke-width:1.2;stroke-linecap:butt;stroke-linejoin:miter;stroke:rgb(0%,0%,0%);stroke-opacity:1;stroke-miterlimit:10;" d="M 62.871094 131.023438 L 90.199219 144.789062 "/>
<path style="fill:none;stroke-width:1.2;stroke-linecap:butt;stroke-linejoin:miter;stroke:rgb(0%,0%,0%);stroke-opacity:1;stroke-miterlimit:10;" d="M 97.664062 138.46875 L 129.644531 117.484375 "/>
<path style="fill:none;stroke-width:1.2;stroke-linecap:butt;stroke-linejoin:miter;stroke:rgb(0%,0%,0%);stroke-opacity:1;stroke-miterlimit:10;" d="M 129.644531 117.484375 L 163.808594 134.6875 "/>
<path style="fill:none;stroke-width:1.2;stroke-linecap:butt;stroke-linejoin:miter;stroke:rgb(0%,0%,0%);stroke-opacity:1;stroke-miterlimit:10;" d="M 137.109375 111.167969 L 164.4375 124.929688 "/>
<path style="fill:none;stroke-width:1.2;stroke-linecap:butt;stroke-linejoin:miter;stroke:rgb(0%,0%,0%);stroke-opacity:1;stroke-miterlimit:10;" d="M 127.460938 79.296875 L 129.644531 117.484375 "/>
<path style="fill:none;stroke-width:1.2;stroke-linecap:butt;stroke-linejoin:miter;stroke:rgb(0%,0%,0%);stroke-opacity:1;stroke-miterlimit:10;" d="M 163.808594 134.6875 L 195.785156 113.703125 "/>
<path style="fill:none;stroke-width:1.2;stroke-linecap:butt;stroke-linejoin:miter;stroke:rgb(0%,0%,0%);stroke-opacity:1;stroke-miterlimit:10;" d="M 195.785156 113.703125 L 193.601562 75.515625 "/>
<path style="fill:none;stroke-width:1.2;stroke-linecap:butt;stroke-linejoin:miter;stroke:rgb(0%,0%,0%);stroke-opacity:1;stroke-miterlimit:10;" d="M 204.554688 109.371094 L 202.808594 78.820312 "/>
<path style="fill:none;stroke-width:1.2;stroke-linecap:butt;stroke-linejoin:miter;stroke:rgb(0%,0%,0%);stroke-opacity:1;stroke-miterlimit:10;" d="M 229.949219 130.90625 L 195.785156 113.703125 "/>
<path style="fill:none;stroke-width:1.2;stroke-linecap:butt;stroke-linejoin:miter;stroke:rgb(0%,0%,0%);stroke-opacity:1;stroke-miterlimit:10;" d="M 193.601562 75.515625 L 159.441406 58.3125 "/>
<path style="fill:none;stroke-width:1.2;stroke-linecap:butt;stroke-linejoin:miter;stroke:rgb(0%,0%,0%);stroke-opacity:1;stroke-miterlimit:10;" d="M 193.601562 75.515625 L 209.59375 65.023438 "/>
<path style="fill:none;stroke-width:1.2;stroke-linecap:butt;stroke-linejoin:miter;stroke:rgb(0%,0%,100%);stroke-opacity:1;stroke-miterlimit:10;" d="M 209.59375 65.023438 L 225.582031 54.53125 "/>
<path style="fill:none;stroke-width:1.2;stroke-linecap:butt;stroke-linejoin:miter;stroke:rgb(0%,0%,0%);stroke-opacity:1;stroke-miterlimit:10;" d="M 159.441406 58.3125 L 127.460938 79.296875 "/>
<path style="fill:none;stroke-width:1.2;stroke-linecap:butt;stroke-linejoin:miter;stroke:rgb(0%,0%,0%);stroke-opacity:1;stroke-miterlimit:10;" d="M 161.179688 67.933594 L 135.597656 84.722656 "/>
<path style="fill:none;stroke-width:1.2;stroke-linecap:butt;stroke-linejoin:miter;stroke:rgb(0%,0%,100%);stroke-opacity:1;stroke-miterlimit:10;" d="M 225.582031 54.53125 L 242.664062 63.132812 "/>
<path style="fill:none;stroke-width:1.2;stroke-linecap:butt;stroke-linejoin:miter;stroke:rgb(0%,0%,0%);stroke-opacity:1;stroke-miterlimit:10;" d="M 242.664062 63.132812 L 259.746094 71.734375 "/>
<path style="fill:none;stroke-width:1.2;stroke-linecap:butt;stroke-linejoin:miter;stroke:rgb(0%,0%,100%);stroke-opacity:1;stroke-miterlimit:10;" d="M 224.953125 64.289062 L 238.617188 71.171875 "/>
<path style="fill:none;stroke-width:1.2;stroke-linecap:butt;stroke-linejoin:miter;stroke:rgb(0%,0%,0%);stroke-opacity:1;stroke-miterlimit:10;" d="M 238.617188 71.171875 L 252.28125 78.050781 "/>
<path style=" stroke:none;fill-rule:nonzero;fill:rgb(100%,100%,100%);fill-opacity:1;" d="M 219.582031 45.03125 L 231.582031 45.03125 L 231.582031 64.03125 L 219.582031 64.03125 Z M 219.582031 45.03125 "/>
<g style="fill:rgb(0%,0%,100%);fill-opacity:1;">
  <use xlink:href="#glyph0-1" x="219.582031" y="59.882812"/>
</g>
<path style="fill:none;stroke-width:1.2;stroke-linecap:butt;stroke-linejoin:miter;stroke:rgb(0%,0%,0%);stroke-opacity:1;stroke-miterlimit:10;" d="M 259.746094 71.734375 L 260.835938 90.828125 "/>
<path style="fill:none;stroke-width:1.2;stroke-linecap:butt;stroke-linejoin:miter;stroke:rgb(0%,0%,100%);stroke-opacity:1;stroke-miterlimit:10;" d="M 260.835938 90.828125 L 261.929688 109.921875 "/>
<path style="fill:none;stroke-width:1.2;stroke-linecap:butt;stroke-linejoin:miter;stroke:rgb(0%,0%,100%);stroke-opacity:1;stroke-miterlimit:10;" d="M 261.929688 109.921875 L 245.941406 120.414062 "/>
<path style="fill:none;stroke-width:1.2;stroke-linecap:butt;stroke-linejoin:miter;stroke:rgb(0%,0%,0%);stroke-opacity:1;stroke-miterlimit:10;" d="M 245.941406 120.414062 L 229.949219 130.90625 "/>
<path style="fill:none;stroke-width:1.2;stroke-linecap:butt;stroke-linejoin:miter;stroke:rgb(0%,0%,100%);stroke-opacity:1;stroke-miterlimit:10;" d="M 253.792969 104.496094 L 241.003906 112.890625 "/>
<path style="fill:none;stroke-width:1.2;stroke-linecap:butt;stroke-linejoin:miter;stroke:rgb(0%,0%,0%);stroke-opacity:1;stroke-miterlimit:10;" d="M 241.003906 112.890625 L 228.210938 121.28125 "/>
<path style=" stroke:none;fill-rule:nonzero;fill:rgb(100%,100%,100%);fill-opacity:1;" d="M 255.929688 100.421875 L 267.929688 100.421875 L 267.929688 119.421875 L 255.929688 119.421875 Z M 255.929688 100.421875 "/>
<g style="fill:rgb(0%,0%,100%);fill-opacity:1;">
  <use xlink:href="#glyph0-1" x="255.929688" y="115.273438"/>
</g>
<path style="fill:none;stroke-width:1.2;stroke-linecap:butt;stroke-linejoin:miter;stroke:rgb(0%,0%,0%);stroke-opacity:1;stroke-miterlimit:10;" d="M 229.949219 130.90625 L 231.042969 150 "/>
<path style="fill:none;stroke-width:1.2;stroke-linecap:butt;stroke-linejoin:miter;stroke:rgb(0%,0%,100%);stroke-opacity:1;stroke-miterlimit:10;" d="M 231.042969 150 L 232.132812 169.09375 "/>
<path style="fill:none;stroke-width:1.2;stroke-linecap:butt;stroke-linejoin:miter;stroke:rgb(0%,0%,100%);stroke-opacity:1;stroke-miterlimit:10;" d="M 232.132812 169.09375 L 216.144531 179.585938 "/>
<path style="fill:none;stroke-width:1.2;stroke-linecap:butt;stroke-linejoin:miter;stroke:rgb(0%,0%,0%);stroke-opacity:1;stroke-miterlimit:10;" d="M 216.144531 179.585938 L 200.152344 190.078125 "/>
<path style="fill:none;stroke-width:1.2;stroke-linecap:butt;stroke-linejoin:miter;stroke:rgb(0%,0%,0%);stroke-opacity:1;stroke-miterlimit:10;" d="M 266.296875 186.296875 L 249.214844 177.695312 "/>
<path style="fill:none;stroke-width:1.2;stroke-linecap:butt;stroke-linejoin:miter;stroke:rgb(0%,0%,100%);stroke-opacity:1;stroke-miterlimit:10;" d="M 249.214844 177.695312 L 232.132812 169.09375 "/>
<path style=" stroke:none;fill-rule:nonzero;fill:rgb(100%,100%,100%);fill-opacity:1;" d="M 226.132812 159.59375 L 238.132812 159.59375 L 238.132812 178.59375 L 226.132812 178.59375 Z M 226.132812 159.59375 "/>
<g style="fill:rgb(0%,0%,100%);fill-opacity:1;">
  <use xlink:href="#glyph0-1" x="226.132812" y="174.445312"/>
</g>
<path style="fill:none;stroke-width:1.2;stroke-linecap:butt;stroke-linejoin:miter;stroke:rgb(0%,0%,0%);stroke-opacity:1;stroke-miterlimit:10;" d="M 200.152344 190.078125 L 202.335938 228.265625 "/>
<path style="fill:none;stroke-width:1.2;stroke-linecap:butt;stroke-linejoin:miter;stroke:rgb(0%,0%,0%);stroke-opacity:1;stroke-miterlimit:10;" d="M 202.335938 228.265625 L 219.417969 236.867188 "/>
<path style="fill:none;stroke-width:1.2;stroke-linecap:butt;stroke-linejoin:miter;stroke:rgb(0%,0%,100%);stroke-opacity:1;stroke-miterlimit:10;" d="M 219.417969 236.867188 L 236.5 245.46875 "/>
<path style="fill:none;stroke-width:1.2;stroke-linecap:butt;stroke-linejoin:miter;stroke:rgb(0%,0%,100%);stroke-opacity:1;stroke-miterlimit:10;" d="M 236.5 245.46875 L 252.488281 234.976562 "/>
<path style="fill:none;stroke-width:1.2;stroke-linecap:butt;stroke-linejoin:miter;stroke:rgb(0%,0%,0%);stroke-opacity:1;stroke-miterlimit:10;" d="M 252.488281 234.976562 L 268.480469 224.484375 "/>
<path style=" stroke:none;fill-rule:nonzero;fill:rgb(100%,100%,100%);fill-opacity:1;" d="M 224.5 235.96875 L 248.5 235.96875 L 248.5 254.96875 L 224.5 254.96875 Z M 224.5 235.96875 "/>
<g style="fill:rgb(0%,0%,100%);fill-opacity:1;">
  <use xlink:href="#glyph0-1" x="224.5" y="250.820312"/>
  <use xlink:href="#glyph0-2" x="236.46875" y="250.820312"/>
</g>
<path style="fill:none;stroke-width:1.2;stroke-linecap:butt;stroke-linejoin:miter;stroke:rgb(0%,0%,0%);stroke-opacity:1;stroke-miterlimit:10;" d="M 268.480469 224.484375 L 266.296875 186.296875 "/>
</g>
</svg>

<svg xmlns="http://www.w3.org/2000/svg" xmlns:xlink="http://www.w3.org/1999/xlink" width="300pt" height="300pt" viewBox="0 0 300 300"><defs><symbol overflow="visible"><path d="M.797 2.828v-14.11h8V2.83zm.906-.89h6.203v-12.33H1.703zm0 0"/></symbol><symbol overflow="visible" id="a"><path d="M1.578-11.672h2.125l5.172 9.766v-9.766h1.53V0H8.282L3.11-9.766V0H1.577zm0 0"/></symbol><symbol overflow="visible" id="b"><path d="M1.578-11.672h1.578v4.78H8.89v-4.78h1.58V0H8.89v-5.563H3.157V0H1.578zm0 0"/></symbol></defs><g><path fill="#fff" d="M0 0h300v300H0z"/><path d="M134.012 193.86l-34.164-17.204M99.848 176.656l-31.98 20.985M91.71 171.23l-25.58 16.79M97.664 138.47l2.184 38.186M67.867 197.64L33.703 180.44M33.703 180.438L31.52 142.25M42.473 176.105l-1.75-30.55M31.52 142.25l31.98-20.984M63.5 121.266l34.164 17.203M62.87 131.023L90.2 144.79M97.664 138.47l31.98-20.986M129.645 117.484l34.164 17.204M137.11 111.168l27.327 13.762M127.46 79.297l2.185 38.187M163.81 134.688l31.975-20.985M195.785 113.703l-2.183-38.187M204.555 109.37l-1.746-30.55M229.95 130.906l-34.165-17.203M193.602 75.516l-34.16-17.204M193.602 75.516l15.992-10.493" stroke-width="1.2" stroke="#000" stroke-miterlimit="10" fill="none"/><path d="M209.594 65.023l15.988-10.492" stroke-width="1.2" stroke="#00f" stroke-miterlimit="10" fill="none"/><path d="M159.44 58.313l-31.98 20.984M161.18 67.934l-25.582 16.79" stroke-width="1.2" stroke="#000" stroke-miterlimit="10" fill="none"/><path d="M225.582 54.53l17.082 8.603" stroke-width="1.2" stroke="#00f" stroke-miterlimit="10" fill="none"/><path d="M242.664 63.133l17.082 8.6" stroke-width="1.2" stroke="#000" stroke-miterlimit="10" fill="none"/><path d="M224.953 64.29l13.664 6.882" stroke-width="1.2" stroke="#00f" stroke-miterlimit="10" fill="none"/><path d="M238.617 71.172l13.664 6.88" stroke-width="1.2" stroke="#000" stroke-miterlimit="10" fill="none"/><path d="M219.582 45.03h12v19h-12zm0 0" fill="#fff"/><use xlink:href="#a" x="219.582" y="59.883" fill="#00f"/><path d="M259.746 71.734l1.09 19.094" stroke-width="1.2" stroke="#000" stroke-miterlimit="10" fill="none"/><path d="M260.836 90.828l1.094 19.094M261.93 109.922l-15.99 10.492" stroke-width="1.2" stroke="#00f" stroke-miterlimit="10" fill="none"/><path d="M245.94 120.414l-15.99 10.492" stroke-width="1.2" stroke="#000" stroke-miterlimit="10" fill="none"/><path d="M253.793 104.496l-12.79 8.395" stroke-width="1.2" stroke="#00f" stroke-miterlimit="10" fill="none"/><path d="M241.004 112.89l-12.793 8.39" stroke-width="1.2" stroke="#000" stroke-miterlimit="10" fill="none"/><path d="M255.93 100.422h12v19h-12zm0 0" fill="#fff"/><use xlink:href="#a" x="255.93" y="115.273" fill="#00f"/><path d="M229.95 130.906L231.042 150" stroke-width="1.2" stroke="#000" stroke-miterlimit="10" fill="none"/><path d="M231.043 150l1.09 19.094M232.133 169.094l-15.988 10.492" stroke-width="1.2" stroke="#00f" stroke-miterlimit="10" fill="none"/><path d="M216.145 179.586l-15.993 10.492M266.297 186.297l-17.082-8.602" stroke-width="1.2" stroke="#000" stroke-miterlimit="10" fill="none"/><path d="M249.215 177.695l-17.082-8.6" stroke-width="1.2" stroke="#00f" stroke-miterlimit="10" fill="none"/><path d="M226.133 159.594h12v19h-12zm0 0" fill="#fff"/><use xlink:href="#a" x="226.133" y="174.445" fill="#00f"/><path d="M200.152 190.078l2.184 38.188M202.336 228.266l17.082 8.6" stroke-width="1.2" stroke="#000" stroke-miterlimit="10" fill="none"/><path d="M219.418 236.867l17.082 8.602M236.5 245.47l15.988-10.493" stroke-width="1.2" stroke="#00f" stroke-miterlimit="10" fill="none"/><path d="M252.488 234.977l15.992-10.493" stroke-width="1.2" stroke="#000" stroke-miterlimit="10" fill="none"/><path d="M224.5 235.97h24v19h-24zm0 0" fill="#fff"/><g fill="#00f"><use xlink:href="#a" x="224.5" y="250.82"/><use xlink:href="#b" x="236.469" y="250.82"/></g><path d="M268.48 224.484l-2.183-38.187" stroke-width="1.2" stroke="#000" stroke-miterlimit="10" fill="none"/></g></svg>
